icons/linear-ele-other-cpu-chip.svg

<svg xmlns="http://www.w3.org/2000/svg" width="32px" height="32px" viewBox="0 0 32 32" version="1.1">
    <title>linear-ele-other-cpu-chip</title>
    <g id="linear-ele-other-cpu-chip" stroke-width="1" fill-rule="evenodd">
        <path d="M21,2 C21.5522847,2 22,2.44771525 22,3 L22,6 C24.209139,6 26,7.790861 26,10 L29,10 C29.5522847,10 30,10.4477153 30,11 C30,11.5522847 29.5522847,12 29,12 L26,12 L26,15 L29,15 C29.5522847,15 30,15.4477153 30,16 C30,16.5522847 29.5522847,17 29,17 L26,17 L26,20 L29,20 C29.5522847,20 30,20.4477153 30,21 C30,21.5522847 29.5522847,22 29,22 L26,22 C26,24.209139 24.209139,26 22,26 L22,29 C22,29.5522847 21.5522847,30 21,30 C20.4477153,30 20,29.5522847 20,29 L20,26 L17,26 L17,29 C17,29.5522847 16.5522847,30 16,30 C15.4477153,30 15,29.5522847 15,29 L15,26 L12,26 L12,29 C12,29.5522847 11.5522847,30 11,30 C10.4477153,30 10,29.5522847 10,29 L10,26 C7.790861,26 6,24.209139 6,22 L3,22 C2.44771525,22 2,21.5522847 2,21 C2,20.4477153 2.44771525,20 3,20 L6,20 L6,17 L3,17 C2.44771525,17 2,16.5522847 2,16 C2,15.4477153 2.44771525,15 3,15 L6,15 L6,12 L3,12 C2.44771525,12 2,11.5522847 2,11 C2,10.4477153 2.44771525,10 3,10 L6,10 C6,7.790861 7.790861,6 10,6 L10,3 C10,2.44771525 10.4477153,2 11,2 C11.5522847,2 12,2.44771525 12,3 L12,6 L15,6 L15,3 C15,2.44771525 15.4477153,2 16,2 C16.5522847,2 17,2.44771525 17,3 L17,6 L20,6 L20,3 C20,2.44771525 20.4477153,2 21,2 Z M22,8 L10,8 C8.8954305,8 8,8.8954305 8,10 L8,22 C8,23.1045695 8.8954305,24 10,24 L22,24 C23.1045695,24 24,23.1045695 24,22 L24,10 C24,8.8954305 23.1045695,8 22,8 Z" id="&#24418;&#29366;" fill-rule="nonzero" />
    </g>
</svg>

<svg xmlns="http://www.w3.org/2000/svg" viewBox="0 0 32 32"><path fill="currentColor" d="M21 2a1 1 0 0 1 1 1v3a4 4 0 0 1 4 4h3a1 1 0 0 1 0 2h-3v3h3a1 1 0 0 1 0 2h-3v3h3a1 1 0 0 1 0 2h-3a4 4 0 0 1-4 4v3a1 1 0 0 1-2 0v-3h-3v3a1 1 0 0 1-2 0v-3h-3v3a1 1 0 0 1-2 0v-3a4 4 0 0 1-4-4H3a1 1 0 0 1 0-2h3v-3H3a1 1 0 0 1 0-2h3v-3H3a1 1 0 0 1 0-2h3a4 4 0 0 1 4-4V3a1 1 0 0 1 2 0v3h3V3a1 1 0 0 1 2 0v3h3V3a1 1 0 0 1 1-1m1 6H10a2 2 0 0 0-2 2v12a2 2 0 0 0 2 2h12a2 2 0 0 0 2-2V10a2 2 0 0 0-2-2"/></svg>
